icon-themes/breeze_svg/cmd/lc_starshapes.star6.svg

<svg viewBox="0 0 24 24" xmlns="http://www.w3.org/2000/svg"><path d="m12 4-3 4h-5l3 4-3 4h5l3 4 3-4h5l-3-4 3-4h-5z" fill="#4d4d4d"/></svg>

<svg xmlns="http://www.w3.org/2000/svg" viewBox="0 0 24 24">
 <path 
     style="fill:#4d4d4d" 
     d="M 12 4 L 9 8 L 4 8 L 7 12 L 4 16 L 9 16 L 12 20 L 15 16 L 20 16 L 17 12 L 20 8 L 15 8 L 12 4 z "
     />
 </svg>
